X: 1159
T: Isfahân Peşrev
C: Kanûnî Sait Efendi
O: Turkey
F: http://compmusic.upf.edu/node/140
N: isfahan--pesrev--fahte----kanuni_sait_bey
N: makam= isfahan
N: form= pesrev
N: usul= fahte = 20/4
M: 20/4
L: 1/16
K: C _2/4B   
Q: 1/4=66
%%MIDI tuningsystem comma53
A4 d2c2 d4 e2g2  | e3d c2d2 c4 B4  | \
w:  1. HANE  |   | 
c2d2 c4 d2e2 d4  | e2fg fed2 e3d ^c2d2  | 
w:   |   | 
^c4 d4 A2=Bc d4  | z2d4e2 d4 e2^2/4f2  | \
w:   |   | 
a2g2 f2e2 d2cd c2B2  | 
w:   | 
z2c4d2 d2cd c2B2  | z2d4e2 d2c4B2  | \
w:   |   | 
B3A B2c2 A2B2 G4  | 
w:   | 
G4 A2B2 c4 d2e2  | e3d ^c2d2 c4 ed2c  | \
w:   |   | 
d2e2 ^3/4f2g2 ag{a}gf f4  | 
w:   | 
^3/4f4 d2e2 e4 e2=f2  | e2d2 c2d2 c3B A4  | \
w:   |   | 
e2^3/4f2 g2a2 g2=f2 e2d2  | 
w:  TESLİM  | 
z2c4d2 z2c4B2  | z2d4e2 d2c4B2  | B3A B2c2 c3B A4  | \
w:   |   |   | 
e2^3/4f2 g2a2 g2=f2 e2d2  | 
w:  TESLİM  | 
z2c4d2 z2c4B2  | z2d4e2 d2c4B2  | B3A B2c2 c3B A4  | \
w:   |   |   | 
A2g2 f2e2 d2^c2 d4  | 
w:  2. HANEYE  | 
d4 e2f2 e4 d4  | f3e d2e2 d4 e2f2  | \
w:  2. HANE  |   | 
e3d c2d2 c2d2 c2B2  | c4 d2e2 d4 f2e2  | 
w:   |   | 
d2e2 d2^c2 =B2c2 d4  | d6g2 ^f2^3/4e2 f2g2  | \
w:   |   | 
a3g ^3/4f2g2 ^1/4f3e d4  | e2f2 e2d2 ^c2d2 e2c2  | 
w:   |   | 
d2e2 ^3/4f2g2 ^f2^3/4e2 f4  | d2e4d2 g^f{a}f^3/4e f4  | \
w:   |   | 
^f4 ^3/4e2f2 g4 a2_1/4b2  | 
w:   | 
a4 g2^3/4f2 ^2/4e3d d4  | z2a2 g2f2 e2d2 c2d2  | \
w:   |   | 
d2cd c2B2 c3B A4  | 
w:   | 
G2c4B2 c2B2 A4  | e2^3/4f2 g2a2 g2=f2 e2d2  | \
w:   |  TESLİM  | 
z2c4d2 z2c4B2  | z2d4e2 d2c4B2  | 
w:   |   | 
B3A B2c2 c3B A4  | e2^3/4f2 g2a2 g2=f2 e2d2  | \
w:   |  TESLİM  | 
z2c4d2 z2c4B2  | 
w:   | 
z2d4e2 d2c4B2  | B3A B2c2 c3B A4  | A6^3/4f2 g8  | \
w:   |   |  3. HANEYE  | 
z4 g2a2 g4 ^3/4f4  | 
w:   | 
g3^3/4f g2a2 g2a2 g2f2  | e6d2 e3d e2^3/4f2  | \
w:   |   | 
g2a2 g2^2/4f2 e2=f2 e2d2  | 
w:   | 
e2d2 e2^3/4f2 g8  | z4 ^3/4f2g2 f4 g4  | \
w:   |   | 
a2b2 a2g2 g2a2 g2^3/4f2  | ^3/4f2g2 f2e2 e2=f2 e2d2  | 
w:   |   | 
d2c2 {d}c2B2 B3A G4  | G4 B2c2 d4 e2f2  | \
w:   |   | 
e3d c2d2 c4 B2G2  | A4 (3f2e2d2 d8  | 
w:   |   | 
z4 c2d2 e4 d2c2  | z4 B2c2 d4 c2B2  | \
w:   |   | 
B3A B2c2 c3B A4  | e2^3/4f2 g2a2 g2=f2 e2d2  | 
w:   |  TESLİM  | 
z2c4d2 z2c4B2  | z2d4e2 d2c4B2  | B3A B2c2 c3B A4  | \
w:   |   |   | 
e2^3/4f2 g2a2 g2=f2 e2d2  | 
w:  TESLİM  | 
z2c4d2 z2c4B2  | z2d4e2 d2c4B2  | B3A B2c2 c3B A4  | \
w:   |   |   | 
A2B4^c2 =B2c2 d4  | 
w:  4. HANEYE  | 
z4 d2e2 d4 g2^3/4f2  | ^3/4f3e f2g2 ^1/4f3e d4  | \
w:   |   | 
z4 d2e2 d4 c2B2  | c3B c2d2 e2d2 c2B2  | 
w:   |   | 
A6c2 B3A G4  | z4 A2B2 A4 B4  | ^c2d2 c2=B2 c4 d4  | \
w:   |   |   | 
g2f2 e2f2 e2f2 e2d2  | 
w:   | 
d4 c'2b2 a4 g2^3/4f2  | g2^3/4f2 g2a2 g2a2 g2f2  | \
w:   |   | 
e6f2 e2f2 e2d2  | d2c4B2 B3A B2c2  | 
w:   |   | 
c2de d2c2 B2A2 G4  | z2a2 g2f2 e2d2 c2B2  | \
w:   |   | 
c6B2 c3B A4  | 
w:   | 
e2^3/4f2 g2a2 g2=f2 e2d2  | z2c4d2 z2c4B2  | \
w:  TESLİM  |   | 
z2d4e2 d2c4B2  | B3A B2c2 c3B A4  | 
w:   |   | 
e2^3/4f2 g2a2 g2=f2 e2d2  | z2c4d2 z2c4B2  | \
w:  TESLİM  |   | 
z2d4e2 d2c4B2  | B3A B2c2 c3B A4  | 
w:   |   | 
A2B2 A8 z4  | |


